X:4630
L:1/8
M:4/4
K:G
 B/c/ | BEDB dcBG | cABG AG E2 | GEDB cABG | GABG A2 G2 :| Bdgd ed B2 | dBgB AG D2 | Bdgd ed g2 | 
 GABG A2 G2 | Bdgd ed B2 | dBgB AG E2 | gbeg dgBg | dgbg a2 g ||

